X: 4
T: Mother's Delight
R: reel
M: 4/4
L: 1/8
K: Ddor
DE|:~F2 FD ~G2 GE|~F2 FD GECE|Ddd^c defe|~d3c ABcA|
ded=c ~A2 AB|cBcG ECCE|Dddc dcAB|1 cAGE FDDE:|2 cAGE FDDE||
|:FAdA FD ~D2|EGcG EC ~C2|FAdA FD ~D2||EDCA, ~D2 DE|
FAdA FD ~D2|EGcG ECDE|~F3E FEDC| A,CEF D2DE:||
